packages/ffe-icons/icons/open/300/md/spoke.svg

<svg xmlns="http://www.w3.org/2000/svg" height="24" viewBox="0 -960 960 960" width="24"><path d="M480-540.001q-57.749 0-98.874-41.125-41.125-41.125-41.125-98.874 0-57.749 41.125-98.874 41.125-41.125 98.874-41.125 57.749 0 98.874 41.125 41.125 41.125 41.125 98.874 0 57.749-41.125 98.874-41.125 41.125-98.874 41.125ZM480-600q33 0 56.5-23.5T560-680q0-33-23.5-56.5T480-760q-33 0-56.5 23.5T400-680q0 33 23.5 56.5T480-600ZM280-140.001q-57.749 0-98.874-41.125-41.125-41.125-41.125-98.874 0-57.749 41.125-98.874 41.125-41.125 98.874-41.125 57.749 0 98.874 41.125 41.125 41.125 41.125 98.874 0 57.749-41.125 98.874-41.125 41.125-98.874 41.125ZM280-200q33 0 56.5-23.5T360-280q0-33-23.5-56.5T280-360q-33 0-56.5 23.5T200-280q0 33 23.5 56.5T280-200Zm400 59.999q-57.749 0-98.874-41.125-41.125-41.125-41.125-98.874 0-57.749 41.125-98.874 41.125-41.125 98.874-41.125 57.749 0 98.874 41.125 41.125 41.125 41.125 98.874 0 57.749-41.125 98.874-41.125 41.125-98.874 41.125ZM680-200q33 0 56.5-23.5T760-280q0-33-23.5-56.5T680-360q-33 0-56.5 23.5T600-280q0 33 23.5 56.5T680-200ZM480-680ZM280-280Zm400 0Z"/></svg>

<svg xmlns="http://www.w3.org/2000/svg" height="24" viewBox="0 -960 960 960" width="24"><path d="M480-540q-57.75 0-98.87-41.13Q340-622.25 340-680q0-57.75 41.13-98.87Q422.25-820 480-820q57.75 0 98.87 41.13Q620-737.75 620-680q0 57.75-41.13 98.87Q537.75-540 480-540Zm0-60q33 0 56.5-23.5T560-680q0-33-23.5-56.5T480-760q-33 0-56.5 23.5T400-680q0 33 23.5 56.5T480-600ZM280-140q-57.75 0-98.87-41.13Q140-222.25 140-280q0-57.75 41.13-98.87Q222.25-420 280-420q57.75 0 98.87 41.13Q420-337.75 420-280q0 57.75-41.13 98.87Q337.75-140 280-140Zm0-60q33 0 56.5-23.5T360-280q0-33-23.5-56.5T280-360q-33 0-56.5 23.5T200-280q0 33 23.5 56.5T280-200Zm400 60q-57.75 0-98.87-41.13Q540-222.25 540-280q0-57.75 41.13-98.87Q622.25-420 680-420q57.75 0 98.87 41.13Q820-337.75 820-280q0 57.75-41.13 98.87Q737.75-140 680-140Zm0-60q33 0 56.5-23.5T760-280q0-33-23.5-56.5T680-360q-33 0-56.5 23.5T600-280q0 33 23.5 56.5T680-200ZM480-680ZM280-280Zm400 0Z"/></svg>
